X: 9
T: The Green Cottage
R: polka
M: 2/4
L: 1/8
K: Ador
ed|:cB BG|EA AB|cB AG|cd ed|
cB BG|EA A2|ed cB|A3 ed|:
e>a a>b|a>e e>d|e>a a>b|a2 ab|
c'2 b2|ag ed|eA A/B/c/d/|1e2 ed|:2e2 e|


Tune 559	Setting 13531

